!!!COM: Haydn, Franz Joseph
!!!OPR: London Symphonies
!!!OTL: Symphonie Nr. 104
!!!XEN: Symphony No. 104 in D major
!!!OTP: "London"
!!!OMV: Movement 3.
!!!YEC: Copyright 1996, Center for Computer Assisted Research in the Humanities
!!!YEM: Rights to all derivative electronic formats reserved.
!!!YEM: Refer to licensing agreement for further details.
!!
!! Menuetto & Trio
!! Menuetto
!! Allegro
**kern	**kern	**kern	**kern	**kern	**kern	**kern	**kern	**kern	**kern	**kern	**kern	**kern	**kern	**kern	**kern	**kern	**kern
!Contrabasso	!Violoncello	!Viola	!Violino II	!Violino I	!Timpani in D, A	!Tromba 2 in D	!Tromba 1 in D	!Corno 2 in D	!Corno 1 in D	!Fagotto 2	!Fagotto 1	!Clarinetto 2 in A	!Clarinetto 1 in A	!Oboe 2	!Oboe 1	!Flauto 2	!Flauto 1
*Icbass	*Icello	*Iviola	*Ivioln	*Ivioln	*Itimpa	*Itromp	*Itromp	*Icor	*Icor	*Ifagot	*Ifagot	*Iclars	*Iclars	*Ioboe	*Ioboe	*Iflt	*Iflt
*ICstr	*ICstr	*ICstr	*ICstr	*ICstr	*ICidio	*ICbras	*ICbras	*ICbras	*ICbras	*ICww	*ICww	*ICww	*ICww	*ICww	*ICww	*ICww	*ICww
*clefF4	*clefF4	*clefC3	*clefG2	*clefG2	*clefF4	*clefG2	*clefG2	*clefG2	*clefG2	*clefF4	*clefF4	*clefG2	*clefG2	*clefG2	*clefG2	*clefG2	*clefG2
*k[f#c#]	*k[f#c#]	*k[f#c#]	*k[f#c#]	*k[f#c#]	*k[f#c#]	*k[]	*k[]	*k[]	*k[]	*k[f#c#]	*k[f#c#]	*k[b-]	*k[b-]	*k[f#c#]	*k[f#c#]	*k[f#c#]	*k[f#c#]
*M3/4	*M3/4	*M3/4	*M3/4	*M3/4	*M3/4	*M3/4	*M3/4	*M3/4	*M3/4	*M3/4	*M3/4	*M3/4	*M3/4	*M3/4	*M3/4	*M3/4	*M3/4
*>[A,B,B,C,C,D,D,E,A,B]	*>[A,B,B,C,C,D,D,E,A,B]	*>[A,B,B,C,C,D,D,E,A,B]	*>[A,B,B,C,C,D,D,E,A,B]	*>[A,B,B,C,C,D,D,E,A,B]	*>[A,B,B,C,C,D,D,E,A,B]	*>[A,B,B,C,C,D,D,E,A,B]	*>[A,B,B,C,C,D,D,E,A,B]	*>[A,B,B,C,C,D,D,E,A,B]	*>[A,B,B,C,C,D,D,E,A,B]	*>[A,B,B,C,C,D,D,E,A,B]	*>[A,B,B,C,C,D,D,E,A,B]	*>[A,B,B,C,C,D,D,E,A,B]	*>[A,B,B,C,C,D,D,E,A,B]	*>[A,B,B,C,C,D,D,E,A,B]	*>[A,B,B,C,C,D,D,E,A,B]	*>[A,B,B,C,C,D,D,E,A,B]	*>[A,B,B,C,C,D,D,E,A,B]
*>A	*>A	*>A	*>A	*>A	*>A	*>A	*>A	*>A	*>A	*>A	*>A	*>A	*>A	*>A	*>A	*>A	*>A
!! Only Fl.1 indicated meas.8-32. An oversight? Entered notes for Fl.2 in m.17-26.
4r	4r	(8d\L	4r	(8dd\L	4r	4r	4r	4r	4r	4r	4r	4r	4r	4r	(8dd\L	(8dd\L	(8dd\L
.	.	8f#\J)	.	8ff#\J)	.	.	.	.	.	.	.	.	.	.	8ff#\J)	8ff#\J)	8ff#\J)
=1	=1	=1	=1	=1	=1	=1	=1	=1	=1	=1	=1	=1	=1	=1	=1	=1	=1
2D\	2d\	4a'\	4f#'/	4aa'\	4D\	2d/	2dd\	2f#\	2a\	2d\	2d\	2f#/	2a\	4ff#'\	4aa'\	4aa'\	4aa'\
.	.	4a'\	4f#'/	4aa'\	4r	.	.	.	.	.	.	.	.	4ff#'\	4aa'\	4aa'\	4aa'\
4DDz\	4Dz\	(4bz\	(4gz/	(4bbz\	4r	4r	4r	(4gz\	(4bz\	4D\	4D\	(4gnz\	(4bz\	(4ggz\	(4bbz\	(4bbz\	(4bbz\
=2	=2	=2	=2	=2	=2	=2	=2	=2	=2	=2	=2	=2	=2	=2	=2	=2	=2
2D\	2d\	4a'\)	4f#'/)	4aa'\)	2.r	2.r	2.r	4f#\)	4a\)	2d\	2d\	4f#/)	4a\)	4ff#'\)	4aa'\)	4aa'\)	4aa'\)
.	.	4a'\	4f#'/	4aa'\	.	.	.	4r	4r	.	.	4r	4r	4ff#'\	4aa'\	4aa'\	4aa'\
4DDz\	4Dz\	(4g#z\	(4e#z/	(4gg#z\	.	.	.	4r	4r	4Dz\	4Dz\	4r	4r	(4ee#z\	(4gg#z\	(4gg#z\	(4gg#z\
=3	=3	=3	=3	=3	=3	=3	=3	=3	=3	=3	=3	=3	=3	=3	=3	=3	=3
2D\	2d\	4a'\)	4f#'/)	4aa'\)	4D\	2d/	2dd\	2f#\	2a\	2d\	2d\	2f#/	2a\	4ff#'\)	4aa'\)	4aa'\)	4aa'\)
.	.	4a'\	4f#'/	4aa'\	4r	.	.	.	.	.	.	.	.	4ff#'\	4aa'\	4aa'\	4aa'\
4DDz\	4Dz\	(8ddz\L	(8bz/L	(8dddz\L	4r	4r	4r	(4gz\	(4bz\	4Dz\	4Dz\	(4gnz\	(4bz\	(8bbz\L	(8dddz\L	(8dddz\L	(8dddz\L
.	.	8b\J)	8g/J)	8bb\J)	.	.	.	.	.	.	.	.	.	8gg\J)	8bb\J)	8bb\J)	8bb\J)
=4	=4	=4	=4	=4	=4	=4	=4	=4	=4	=4	=4	=4	=4	=4	=4	=4	=4
2D\	2d\	4a'\	4f#'/	4aa'\	2.r	2.r	2.r	4f#\)	4a\)	2d\	2d\	4f#/)	4a\)	4ff#'\	4aa'\	4aa'\	4aa'\
.	.	4a'\	4f#'/	4aa'\	.	.	.	4r	4r	.	.	4r	4r	4ff#'\	4aa'\	4aa'\	4aa'\
4r	4r	(8d\L	4r	(8dd\L	.	.	.	4r	4r	4r	4r	4r	4r	4r	(8dd\L	(8dd\L	(8dd\L
.	.	8f#\J)	.	8ff#\J)	.	.	.	.	.	.	.	.	.	.	8ff#\J)	8ff#\J)	8ff#\J)
=5	=5	=5	=5	=5	=5	=5	=5	=5	=5	=5	=5	=5	=5	=5	=5	=5	=5
2BB\	2B\	4g'\	[2.d/	4gg'\	4D\	4d/	4dd\	4d\	4d\	2B\	2B\	[2.dd\	[2.dd\	[2.dd\	4gg'\	4gg'\	4gg'\
.	.	(4g\	.	(4gg\	4D\	4d/	4dd\	4d\	4d\	.	.	.	.	.	4gg'\	(4gg\	(4gg\
4AA\	4A\	4f#\)	.	4ff#\)	4D\	4d/	4dd\	4d\	4d\	4A\	4A\	.	.	.	4ff#\	4ff#\)	4ff#\)
=6	=6	=6	=6	=6	=6	=6	=6	=6	=6	=6	=6	=6	=6	=6	=6	=6	=6
2GG\	2G\	4e'\	2d/]	4ee'\	4D\	4d/	4dd\	2.d\	2.d\	2G\	2G\	2.dd\]	2dd\]	4dd\]	4ee\	4ee'\	4ee'\
.	.	4e'\	.	4ee'\	4r	4r	4r	.	.	.	.	.	.	4b'\	4ee'\	4ee'\	4ee'\
4EEz\	4Ez\	4bz'\	4gz/	4bbz'\	4r	4r	4r	.	.	4Ez\	4Ez\	.	4ggnz\	4gz'/	4bbz'\	4bbz'\	4bbz'\
=7	=7	=7	=7	=7	=7	=7	=7	=7	=7	=7	=7	=7	=7	=7	=7	=7	=7
2.AA\	2.A\	2.gTt\	2.eTt/	(2.cc#Tt\	32AA/LLL	2.aTt/	2.ee\	2.ATt/	2.eTt\	2.A\	2.A\	2.cc#Tt\	2.eeTt\	(2.gTt/	(2.cc#Tt\	(2.cc#Tt\	(2.cc#Tt\
.	.	.	.	.	32AA/	.	.	.	.	.	.	.	.	.	.	.	.
.	.	.	.	.	32AA/	.	.	.	.	.	.	.	.	.	.	.	.
.	.	.	.	.	32AA/	.	.	.	.	.	.	.	.	.	.	.	.
.	.	.	.	.	32AA/	.	.	.	.	.	.	.	.	.	.	.	.
.	.	.	.	.	32AA/	.	.	.	.	.	.	.	.	.	.	.	.
.	.	.	.	.	32AA/	.	.	.	.	.	.	.	.	.	.	.	.
.	.	.	.	.	32AA/	.	.	.	.	.	.	.	.	.	.	.	.
.	.	.	.	.	32AA/	.	.	.	.	.	.	.	.	.	.	.	.
.	.	.	.	.	32AA/	.	.	.	.	.	.	.	.	.	.	.	.
.	.	.	.	.	32AA/	.	.	.	.	.	.	.	.	.	.	.	.
.	.	.	.	.	32AA/	.	.	.	.	.	.	.	.	.	.	.	.
.	.	.	.	.	32AA/	.	.	.	.	.	.	.	.	.	.	.	.
.	.	.	.	.	32AA/	.	.	.	.	.	.	.	.	.	.	.	.
.	.	.	.	.	32AA/	.	.	.	.	.	.	.	.	.	.	.	.
.	.	.	.	.	32AA/	.	.	.	.	.	.	.	.	.	.	.	.
.	.	.	.	.	32AA/	.	.	.	.	.	.	.	.	.	.	.	.
.	.	.	.	.	32AA/	.	.	.	.	.	.	.	.	.	.	.	.
.	.	.	.	.	32AA/	.	.	.	.	.	.	.	.	.	.	.	.
.	.	.	.	.	32AA/	.	.	.	.	.	.	.	.	.	.	.	.
.	.	.	.	.	32AA/	.	.	.	.	.	.	.	.	.	.	.	.
.	.	.	.	.	32AA/	.	.	.	.	.	.	.	.	.	.	.	.
.	.	.	.	.	32AA/	.	.	.	.	.	.	.	.	.	.	.	.
.	.	.	.	.	32AA/JJJ	.	.	.	.	.	.	.	.	.	.	.	.
=8	=8	=8	=8	=8	=8	=8	=8	=8	=8	=8	=8	=8	=8	=8	=8	=8	=8
4DD\	4D\	4f#\	4d/	4dd\	4D\	4d/	4dd\	4F#/	4d\	4D\	4D\	4dd\	4dd\	4f#/	4dd\	4dd\	4dd\
4r	4r	4r	4r	4r	4r	4r	4r	4r	4r	4r	4r	4r	4r	4r	4r	4r	4r
4r	4r	(8d\L	4r	(8dd\L	4r	4r	4r	4r	4r	4r	4r	4r	4r	4r	4r	4r	(8dd\L
.	.	8f#\J)	.	8ff#\J)	.	.	.	.	.	.	.	.	.	.	.	.	8ff#\J)
=9	=9	=9	=9	=9	=9	=9	=9	=9	=9	=9	=9	=9	=9	=9	=9	=9	=9
2D\	2d\	4a'\	4f#'/	4aa'\	2.r	2.r	2.r	(2f#\	(2a\	2.r	2.r	2.r	2.r	2.r	(2ff#\	2.r	(2aa\
.	.	4a'\	4f#'/	4aa'\	.	.	.	.	.	.	.	.	.	.	.	.	.
4DD\	4D\	(4b\	(4g/	(4bb\	.	.	.	4g\	4b\	.	.	.	.	.	4gg\	.	4bb\
=10	=10	=10	=10	=10	=10	=10	=10	=10	=10	=10	=10	=10	=10	=10	=10	=10	=10
2D\	2d\	4a'\)	4f#'/)	4aa'\)	2.r	2.r	2.r	4f#\)	4a\)	2.r	2.r	2.r	2.r	2.r	2ff#\	2.r	2aa\
.	.	4a'\	4f#'/	4aa'\	.	.	.	4r	4r	.	.	.	.	.	.	.	.
4DD\	4D\	(4g#\	(4e#/	(4gg#\	.	.	.	4r	4r	.	.	.	.	.	4ee#\)	.	4gg#\)
=11	=11	=11	=11	=11	=11	=11	=11	=11	=11	=11	=11	=11	=11	=11	=11	=11	=11
2D\	2d\	4a'\)	4f#'/)	4aa'\)	2.r	2.r	2.r	(2f#\	(2a\	2.r	2.r	2.r	2.r	2.r	2ff#\	2.r	2aa\
.	.	4a'\	4f#'/	4aa'\	.	.	.	.	.	.	.	.	.	.	.	.	.
4DD\	4D\	(8dd\L	(8b/L	(8ddd\L	.	.	.	4g\	4b\	.	.	.	.	.	(8bb\L	.	(8ddd\L
.	.	8b\J)	8g/J)	8bb\J)	.	.	.	.	.	.	.	.	.	.	8gg\J)	.	8bb\J)
=12	=12	=12	=12	=12	=12	=12	=12	=12	=12	=12	=12	=12	=12	=12	=12	=12	=12
2D\	2d\	4a'\	4f#'/	4aa'\	2.r	2.r	2.r	4f#\)	4a\)	2.r	2.r	2.r	2.r	2.r	2ff#\	2.r	2aa\
.	.	4a'\	4f#'/	4aa'\	.	.	.	4r	4r	.	.	.	.	.	.	.	.
4r	4r	(8d\L	4r	(8dd\L	.	.	.	4r	4r	.	.	.	.	.	4r	.	(8dd\L
.	.	8f#\J)	.	8ff#\J)	.	.	.	.	.	.	.	.	.	.	.	.	8ff#\J)
=13	=13	=13	=13	=13	=13	=13	=13	=13	=13	=13	=13	=13	=13	=13	=13	=13	=13
2BB\	2B\	4g'\	[2.d/	4gg'\	2.r	2.r	2.r	[2.d\	[2.d\	2.r	2.r	2.r	2.r	2.r	[2.dd\	2.r	2gg\
.	.	(4g\	.	(4gg\	.	.	.	.	.	.	.	.	.	.	.	.	.
4AA\	4A\	4f#\)	.	4ff#\)	.	.	.	.	.	.	.	.	.	.	.	.	(4ff#\
=14	=14	=14	=14	=14	=14	=14	=14	=14	=14	=14	=14	=14	=14	=14	=14	=14	=14
2GG\	2G\	4e'\	2d/]	4ee'\	2.r	2.r	2.r	2.d\]	2.d\]	2.r	2.r	2.r	2.r	2.r	2.dd\]	2.r	2ee\)
.	.	4e'\	.	4ee'\	.	.	.	.	.	.	.	.	.	.	.	.	.
4EE\	4E\	4b'\	4g/	4bb'\	.	.	.	.	.	.	.	.	.	.	.	.	4eee\
=15	=15	=15	=15	=15	=15	=15	=15	=15	=15	=15	=15	=15	=15	=15	=15	=15	=15
2.AA\	2.A\	2.gTt\	2.eTt/	(2.cc#Tt\	2.r	2.r	2.r	2.A/	2.e\	2.r	2.r	2.r	2.r	2.r	(2.ggTt\	2.r	(2.ccc#Tt\
=16	=16	=16	=16	=16	=16	=16	=16	=16	=16	=16	=16	=16	=16	=16	=16	=16	=16
4DD\	4D\	4f#\	4d/	4dd\	4r	4r	4r	4F#/	4d\	4r	4r	4r	4r	4r	4ff#\	4r	4ddd\
4r	4r	4r	4r	4r	4r	4r	4r	4r	4r	4r	4r	4r	4r	4r	4r	4r	4r
=!|:@	=!|:@	=!|:@	=!|:@	=!|:@	=!|:@	=!|:@	=!|:@	=!|:@	=!|:@	=!|:@	=!|:@	=!|:@	=!|:@	=!|:@	=!|:@	=!|:@	=!|:@
*>B	*>B	*>B	*>B	*>B	*>B	*>B	*>B	*>B	*>B	*>B	*>B	*>B	*>B	*>B	*>B	*>B	*>B
4r	4r	4r	4r	(8d/L	4r	4r	4r	4r	4r	4r	4r	4r	4r	4r	4r	4r	4r
.	.	.	.	8f#/J)	.	.	.	.	.	.	.	.	.	.	.	.	.
=17	=17	=17	=17	=17	=17	=17	=17	=17	=17	=17	=17	=17	=17	=17	=17	=17	=17
2D\	2d\	2d\	2f#/	4a'/	4D\	2dd\	2ff#\	2.r	2.r	2d\	2d\	2a\	2ff#\	2f#/	2a/	2aa\	2aa\
.	.	.	.	4a'/	4r	.	.	.	.	.	.	.	.	.	.	.	.
(4C#\	(4c#\	(4g\	(4e/	(4a#/	4r	4ee\	4ee\	.	.	(4c#\	(4c#\	(4a#\	(4ggn\	(4g/	(4a#/	(4aa#\	(4aa#\
=18	=18	=18	=18	=18	=18	=18	=18	=18	=18	=18	=18	=18	=18	=18	=18	=18	=18
4D'\)	4d'\)	4f#'\)	4f#'/)	4b'\)	2.r	2dd\	2dd\	2.r	2.r	2d\)	2d\)	2b\)	2ff#\)	2f#/)	2b\)	2bb'\)	2bb'\)
4D'\	4d'\	4f#'\	4f#'/	4b'\	.	.	.	.	.	.	.	.	.	.	.	.	.
(4C#\	(4c#\	(4e\	(4a#/	(4cc#\	.	4ee\	4ee\	.	.	(4c#\	(4c#\	(4a#\	(4ee\	(4a#/	(4cc#\	(4ccc#\	(4ccc#\
=19	=19	=19	=19	=19	=19	=19	=19	=19	=19	=19	=19	=19	=19	=19	=19	=19	=19
4BB'\)	4B'\)	4f#'\)	4b'\)	4dd'\)	4D\	4dd\	4ff#\	2.r	2.r	2B\)	2B\)	2b\)	2dd\)	2b\)	2dd\)	4ddd'\)	4ddd'\)
4BB'\	4B'\	4f#'\	4b'\	4dd'\	4r	4ff#\	4ff#\	.	.	.	.	.	.	.	.	4bb'\	4bb'\
4FF#'\	4F#'\	4c#'\	4a#'/	4ff#'\	4r	4ee\	4ee\	.	.	4F#\	4F#\	4a#\	4cc#\	4cc#\	4ff#\	4aa#'\	4aa#'\
=20	=20	=20	=20	=20	=20	=20	=20	=20	=20	=20	=20	=20	=20	=20	=20	=20	=20
2BBB/	2BB/	2d\	2b/ 2d/	2bb\	2.r	2dd\	2dd\	4r	4r	2BB/	2BB/	2b\	2dd\	2dd\	2bb\	2bb\	2bb\
.	.	.	.	.	.	.	.	4r	4r	.	.	.	.	.	.	.	.
4r	8B\L	(8B\L	4ff#\ 4dd\	4ddd\	.	4dd\	4ff#\	4d\	4f#\	(8B\L	(8B\L	4dd\	4ff#\	(8b\L	(8b\L	(8b\L	(8b\L
.	8d\J	8d\J)	.	.	.	.	.	.	.	8d\J)	8d\J)	.	.	8dd\J)	8dd\J)	8dd\J)	8dd\J)
=21	=21	=21	=21	=21	=21	=21	=21	=21	=21	=21	=21	=21	=21	=21	=21	=21	=21
2.r	4f#\	4f#\	4ff#\ 4dd\	4ddd\	2.r	4dd\	4ff#\	4d\	4f#\	4f#\	4f#\	4dd\	4ff#\	4ff#\	4ff#\	4ff#\	4ff#\
.	8B\L	(8B\L	4ff#\ 4dd\	4ddd\	.	4dd\	4ff#\	4d\	4f#\	(8B\L	(8B\L	4dd\	4ff#\	(8b\L	(8b\L	(8b\L	(8b\L
.	8d\J	8d\J)	.	.	.	.	.	.	.	8d\J)	8d\J)	.	.	8dd\J)	8dd\J)	8dd\J)	8dd\J)
.	4f#\	4f#\	4ff#\ 4dd\	4ddd\	.	4dd\	4ff#\	4d\	4f#\	4f#\	4f#\	4dd\	4ff#\	4ff#\	4ff#\	4ff#\	4ff#\
=22	=22	=22	=22	=22	=22	=22	=22	=22	=22	=22	=22	=22	=22	=22	=22	=22	=22
4r	8B\L	(8B\L	4ff#\ 4dd\	4ddd\	2.r	4dd\	4ff#\	4d\	4f#\	(8B\L	(8B\L	2dd\	2ff#\	(8b\L	(8b\L	(8b\L	(8b\L
.	8d\J	8d\J)	.	.	.	.	.	.	.	8d\J)	8d\J)	.	.	8dd\J)	8dd\J)	8dd\J)	8dd\J)
4r	4f#\	4f#\	4ff#\ 4dd\	4ddd\	.	4dd\	4ff#\	4d\	4f#\	4f#\	4f#\	.	.	4ff#\	4ff#\	4ff#\	4ff#\
(8EE\L	(8E\L	4E/	8ddd\L	8ddd\L	.	4ee\	4ee\	4r	4r	(8E\L	(8E\L	4g#\	4dd\	4gg#\	4bb\	4ddd\	4ddd\
8GG#\J)	8G#\J)	.	8ccc#\J	8ccc#\J	.	.	.	.	.	8G#\J)	8G#\J)	.	.	.	.	.	.
=23	=23	=23	=23	=23	=23	=23	=23	=23	=23	=23	=23	=23	=23	=23	=23	=23	=23
4BB\	4B\	4E/	8bb\L	8bb\L	2.r	4ee\	4ee\	2.r	2.r	4B\	4B\	4g#\	4dd\	4gg#\	4bb\	4ddd\	4ddd\
.	.	.	8aa\	8aa\	.	.	.	.	.	.	.	.	.	.	.	.	.
(8EE\L	(8E\L	4E/	8gg#\	8gg#\	.	4ee\	4ee\	.	.	(8E\L	(8E\L	4g#\	4dd\	4gg#\	4bb\	4ddd\	4ddd\
8GG#\J)	8G#\J)	.	8ff#\	8ff#\	.	.	.	.	.	8G#\J)	8G#\J)	.	.	.	.	.	.
4BB\	4B\	4E/	8ee\	8ee\	.	4ee\	4ee\	.	.	4B\	4B\	4g#\	4dd\	4gg#\	4bb\	4ddd\	4ddd\
.	.	.	8dd\J	8dd\J	.	.	.	.	.	.	.	.	.	.	.	.	.
=24	=24	=24	=24	=24	=24	=24	=24	=24	=24	=24	=24	=24	=24	=24	=24	=24	=24
(8EE\L	(8E\L	4E/	8cc#/L	8cc#/L	2.r	4ee\	4ee\	2.r	2.r	(8E\L	(8E\L	2.g#\	2.dd\	4gg#\	4bb\	4ddd\	4ddd\
8GG#\J)	8G#\J)	.	8b/	8b/	.	.	.	.	.	8G#\J)	8G#\J)	.	.	.	.	.	.
4BB\	4B\	4E/	8a/	8a/	.	4ee\	4ee\	.	.	4B\	4B\	.	.	4gg#\	4bb\	4ddd\	4ddd\
.	.	.	8g#/	8g#/	.	.	.	.	.	.	.	.	.	.	.	.	.
(8EE\L	(8E\L	4G#/	8f#/	8f#/	.	4ee\	4ee\	.	.	(8E\L	(8E\L	.	.	4bb\	4bb\	4ddd\	4ddd\
8GG#\J)	8G#\J)	.	8e/J	8e/J	.	.	.	.	.	8G#\J)	8G#\J)	.	.	.	.	.	.
=25	=25	=25	=25	=25	=25	=25	=25	=25	=25	=25	=25	=25	=25	=25	=25	=25	=25
4AA\	4A\	4A/	(8d/L	(8d/L	2.r	2.ee\	2.ee\	2.r	2.r	4A\	4A\	4a\	4cc#\	4aa\	4aa\	(8ddd\L	(8ddd\L
.	.	.	8c#/)	8c#/)	.	.	.	.	.	.	.	.	.	.	.	8ccc#\)	8ccc#\)
4CC#/	4C#/	4c#\	8e'/	8e'/	.	.	.	.	.	4C#/	4C#/	4b\	4dd\	8ee\L	8ccc#\L	8eee'\	8eee'\
.	.	.	8d'/	8d'/	.	.	.	.	.	.	.	.	.	8dd\	8bb\	8ddd'\	8ddd'\
4EE\	4E\	4e\	8c#'/	8c#'/	.	.	.	.	.	4E\	4E\	4g#\	4b\	8cc#\	8aa\	8ccc#'\	8ccc#'\
.	.	.	8B'/J	8B'/J	.	.	.	.	.	.	.	.	.	8b\J	8gg#\J	8bb'\J	8bb'\J
=26	=26	=26	=26	=26	=26	=26	=26	=26	=26	=26	=26	=26	=26	=26	=26	=26	=26
4AAA/	4AA/	4A/	2A/	2A/	2.r	2a/	2ee\	[2.AA/	[2.A/	4AA/	4AA/	4a\	4a\	4cc#\	4aa\	4aa\	4aa\
4AA\	4A\	4a\	.	.	.	.	.	.	.	4A\	4A\	4r	4r	4r	4r	4r	4r
4r	4r	4r	4r	(8c#/L	.	4r	4r	.	.	4r	4r	4r	4r	4r	4r	4r	4r
.	.	.	.	8e/J)	.	.	.	.	.	.	.	.	.	.	.	.	.
=27	=27	=27	=27	=27	=27	=27	=27	=27	=27	=27	=27	=27	=27	=27	=27	=27	=27
2AAA/	2AA/	[2.A/	4e'/	4g'/	2.r	2.r	2.r	2.AA_/	2.A_/	2.r	2.r	2.r	2.r	2.r	2.r	2.r	2.r
.	.	.	4e'/	4g'/	.	.	.	.	.	.	.	.	.	.	.	.	.
4r	4r	.	(4d#/	(4f#/	.	.	.	.	.	.	.	.	.	.	.	.	.
=28	=28	=28	=28	=28	=28	=28	=28	=28	=28	=28	=28	=28	=28	=28	=28	=28	=28
4AAA/	4AA/	2A/]	4e'/)	4g'/)	2.r	2.r	2.r	2.AA_/	2.A_/	2.r	4r	2.r	2.r	2.r	2.r	2.r	2.r
4r	4r	.	4e'/	4g'/	.	.	.	.	.	.	4r	.	.	.	.	.	.
4r	4r	(4d\	(4f/	(4b-\	.	.	.	.	.	.	(4d\	.	.	.	.	.	.
=29	=29	=29	=29	=29	=29	=29	=29	=29	=29	=29	=29	=29	=29	=29	=29	=29	=29
4AAA/	4AA/	4c#'\)	4e'/)	4a'/)	2.r	2.r	2.r	2.AA_/	2.A_/	2.r	4c#\)	2.r	2.r	2.r	2.r	2.r	2.r
4r	4r	4c#'\	4e'/	4a'/	.	.	.	.	.	.	4e'\	.	.	.	.	.	.
4r	4r	(8f\L	(4d/	(4g#/	.	.	.	.	.	.	(8f\L	.	.	.	.	.	.
.	.	8d\J)	.	.	.	.	.	.	.	.	8d\J)	.	.	.	.	.	.
=30	=30	=30	=30	=30	=30	=30	=30	=30	=30	=30	=30	=30	=30	=30	=30	=30	=30
4AAA/	4AA/	4c#'\	4e'/)	4a'/)	32AA/LLL	2.r	2.r	2.AA/]	2.A/]	2.r	4A\	2.r	2.r	2.r	2.r	2.r	4r
.	.	.	.	.	32AA/	.	.	.	.	.	.	.	.	.	.	.	.
.	.	.	.	.	32AA/	.	.	.	.	.	.	.	.	.	.	.	.
.	.	.	.	.	32AA/	.	.	.	.	.	.	.	.	.	.	.	.
.	.	.	.	.	32AA/	.	.	.	.	.	.	.	.	.	.	.	.
.	.	.	.	.	32AA/	.	.	.	.	.	.	.	.	.	.	.	.
.	.	.	.	.	32AA/	.	.	.	.	.	.	.	.	.	.	.	.
.	.	.	.	.	32AA/	.	.	.	.	.	.	.	.	.	.	.	.
4r	4r	4c#'\	4e'/	4a'/	32AA/	.	.	.	.	.	4r	.	.	.	.	.	4r
.	.	.	.	.	32AA/	.	.	.	.	.	.	.	.	.	.	.	.
.	.	.	.	.	32AA/	.	.	.	.	.	.	.	.	.	.	.	.
.	.	.	.	.	32AA/	.	.	.	.	.	.	.	.	.	.	.	.
.	.	.	.	.	32AA/	.	.	.	.	.	.	.	.	.	.	.	.
.	.	.	.	.	32AA/	.	.	.	.	.	.	.	.	.	.	.	.
.	.	.	.	.	32AA/	.	.	.	.	.	.	.	.	.	.	.	.
.	.	.	.	.	32AA/	.	.	.	.	.	.	.	.	.	.	.	.
4r	4r	4r	4r	(8A/L	32AA/	.	.	.	.	.	4r	.	.	.	.	.	(4bb-z\
.	.	.	.	.	32AA/	.	.	.	.	.	.	.	.	.	.	.	.
.	.	.	.	.	32AA/	.	.	.	.	.	.	.	.	.	.	.	.
.	.	.	.	.	32AA/	.	.	.	.	.	.	.	.	.	.	.	.
.	.	.	.	8c#/J)	32AA/	.	.	.	.	.	.	.	.	.	.	.	.
.	.	.	.	.	32AA/	.	.	.	.	.	.	.	.	.	.	.	.
.	.	.	.	.	32AA/	.	.	.	.	.	.	.	.	.	.	.	.
.	.	.	.	.	32AA/JJJ	.	.	.	.	.	.	.	.	.	.	.	.
=31	=31	=31	=31	=31	=31	=31	=31	=31	=31	=31	=31	=31	=31	=31	=31	=31	=31
2.r	2.r	2.r	2.r	(8e/L	32AA/LLL	2.r	2.r	2.r	2.r	2.r	2.r	2.r	2.r	2.r	2.r	2.r	4aa'\)
.	.	.	.	.	32AA/	.	.	.	.	.	.	.	.	.	.	.	.
.	.	.	.	.	32AA/	.	.	.	.	.	.	.	.	.	.	.	.
.	.	.	.	.	32AA/	.	.	.	.	.	.	.	.	.	.	.	.
.	.	.	.	8c#/)	32AA/	.	.	.	.	.	.	.	.	.	.	.	.
.	.	.	.	.	32AA/	.	.	.	.	.	.	.	.	.	.	.	.
.	.	.	.	.	32AA/	.	.	.	.	.	.	.	.	.	.	.	.
.	.	.	.	.	32AA/	.	.	.	.	.	.	.	.	.	.	.	.
.	.	.	.	(8e/	32AA/	.	.	.	.	.	.	.	.	.	.	.	4aa'\
.	.	.	.	.	32AA/	.	.	.	.	.	.	.	.	.	.	.	.
.	.	.	.	.	32AA/	.	.	.	.	.	.	.	.	.	.	.	.
.	.	.	.	.	32AA/	.	.	.	.	.	.	.	.	.	.	.	.
.	.	.	.	8g/J)	32AA/	.	.	.	.	.	.	.	.	.	.	.	.
.	.	.	.	.	32AA/	.	.	.	.	.	.	.	.	.	.	.	.
.	.	.	.	.	32AA/	.	.	.	.	.	.	.	.	.	.	.	.
.	.	.	.	.	32AA/	.	.	.	.	.	.	.	.	.	.	.	.
.	.	.	.	(8A/L	32AA/	.	.	.	.	.	.	.	.	.	.	.	(4bb-z\
.	.	.	.	.	32AA/	.	.	.	.	.	.	.	.	.	.	.	.
.	.	.	.	.	32AA/	.	.	.	.	.	.	.	.	.	.	.	.
.	.	.	.	.	32AA/	.	.	.	.	.	.	.	.	.	.	.	.
.	.	.	.	8c#/J)	32AA/	.	.	.	.	.	.	.	.	.	.	.	.
.	.	.	.	.	32AA/	.	.	.	.	.	.	.	.	.	.	.	.
.	.	.	.	.	32AA/	.	.	.	.	.	.	.	.	.	.	.	.
.	.	.	.	.	32AA/JJJ	.	.	.	.	.	.	.	.	.	.	.	.
=32	=32	=32	=32	=32	=32	=32	=32	=32	=32	=32	=32	=32	=32	=32	=32	=32	=32
2.r	2.r	2.r	2.r	(8e/L	32AA/LLL	2.r	2.r	2.r	2.r	2.r	2.r	2.r	2.r	2.r	2r	2.r	4aa'\)
.	.	.	.	.	32AA/	.	.	.	.	.	.	.	.	.	.	.	.
.	.	.	.	.	32AA/	.	.	.	.	.	.	.	.	.	.	.	.
.	.	.	.	.	32AA/	.	.	.	.	.	.	.	.	.	.	.	.
.	.	.	.	8c#/)	32AA/	.	.	.	.	.	.	.	.	.	.	.	.
.	.	.	.	.	32AA/	.	.	.	.	.	.	.	.	.	.	.	.
.	.	.	.	.	32AA/	.	.	.	.	.	.	.	.	.	.	.	.
.	.	.	.	.	32AA/	.	.	.	.	.	.	.	.	.	.	.	.
.	.	.	.	(8e/	32AA/	.	.	.	.	.	.	.	.	.	.	.	4aa'\
.	.	.	.	.	32AA/	.	.	.	.	.	.	.	.	.	.	.	.
.	.	.	.	.	32AA/	.	.	.	.	.	.	.	.	.	.	.	.
.	.	.	.	.	32AA/	.	.	.	.	.	.	.	.	.	.	.	.
.	.	.	.	8g/J)	32AA/	.	.	.	.	.	.	.	.	.	.	.	.
.	.	.	.	.	32AA/	.	.	.	.	.	.	.	.	.	.	.	.
.	.	.	.	.	32AA/	.	.	.	.	.	.	.	.	.	.	.	.
.	.	.	.	.	32AA/	.	.	.	.	.	.	.	.	.	.	.	.
.	.	.	.	(8a/L	32AA/	.	.	.	.	.	.	.	.	.	(4bb-z\	.	4r
.	.	.	.	.	32AA/	.	.	.	.	.	.	.	.	.	.	.	.
.	.	.	.	.	32AA/	.	.	.	.	.	.	.	.	.	.	.	.
.	.	.	.	.	32AA/	.	.	.	.	.	.	.	.	.	.	.	.
.	.	.	.	8cc#/J)	32AA/	.	.	.	.	.	.	.	.	.	.	.	.
.	.	.	.	.	32AA/	.	.	.	.	.	.	.	.	.	.	.	.
.	.	.	.	.	32AA/	.	.	.	.	.	.	.	.	.	.	.	.
.	.	.	.	.	32AA/JJJ	.	.	.	.	.	.	.	.	.	.	.	.
=33	=33	=33	=33	=33	=33	=33	=33	=33	=33	=33	=33	=33	=33	=33	=33	=33	=33
2.r	2.r	4e\ 4c#\	4g/ 4A/	(8ee\L	32AA/LLL	2.r	2.r	2.r	2.r	4c#\	4e\	2.r	2.r	2.r	4aa'\)	2.r	2.r
.	.	.	.	.	32AA/	.	.	.	.	.	.	.	.	.	.	.	.
.	.	.	.	.	32AA/	.	.	.	.	.	.	.	.	.	.	.	.
.	.	.	.	.	32AA/	.	.	.	.	.	.	.	.	.	.	.	.
.	.	.	.	8cc#\)	32AA/	.	.	.	.	.	.	.	.	.	.	.	.
.	.	.	.	.	32AA/	.	.	.	.	.	.	.	.	.	.	.	.
.	.	.	.	.	32AA/	.	.	.	.	.	.	.	.	.	.	.	.
.	.	.	.	.	32AA/	.	.	.	.	.	.	.	.	.	.	.	.
.	.	4r	4r	(8ee\	32AA/	.	.	.	.	4r	4r	.	.	.	4aa'\	.	.
.	.	.	.	.	32AA/	.	.	.	.	.	.	.	.	.	.	.	.
.	.	.	.	.	32AA/	.	.	.	.	.	.	.	.	.	.	.	.
.	.	.	.	.	32AA/	.	.	.	.	.	.	.	.	.	.	.	.
.	.	.	.	8gg\J)	32AA/	.	.	.	.	.	.	.	.	.	.	.	.
.	.	.	.	.	32AA/	.	.	.	.	.	.	.	.	.	.	.	.
.	.	.	.	.	32AA/	.	.	.	.	.	.	.	.	.	.	.	.
.	.	.	.	.	32AA/	.	.	.	.	.	.	.	.	.	.	.	.
.	.	4r	4r	(8a\L	32AA/	.	.	.	.	4r	4r	.	.	.	(4bb-\	.	.
.	.	.	.	.	32AA/	.	.	.	.	.	.	.	.	.	.	.	.
.	.	.	.	.	32AA/	.	.	.	.	.	.	.	.	.	.	.	.
.	.	.	.	.	32AA/	.	.	.	.	.	.	.	.	.	.	.	.
.	.	.	.	8cc#\J)	32AA/	.	.	.	.	.	.	.	.	.	.	.	.
.	.	.	.	.	32AA/	.	.	.	.	.	.	.	.	.	.	.	.
.	.	.	.	.	32AA/	.	.	.	.	.	.	.	.	.	.	.	.
.	.	.	.	.	32AA/JJJ	.	.	.	.	.	.	.	.	.	.	.	.
=34	=34	=34	=34	=34	=34	=34	=34	=34	=34	=34	=34	=34	=34	=34	=34	=34	=34
2.r	2.r	4e\ 4c#\	4g/ 4A/	(8ee\L	32AA/LLL	2.r	2.r	2.r	2.r	4c#\	4e\	2.r	2.r	4r	4aa'\)	4r	4r
.	.	.	.	.	32AA/	.	.	.	.	.	.	.	.	.	.	.	.
.	.	.	.	.	32AA/	.	.	.	.	.	.	.	.	.	.	.	.
.	.	.	.	.	32AA/	.	.	.	.	.	.	.	.	.	.	.	.
.	.	.	.	8cc#\)	32AA/	.	.	.	.	.	.	.	.	.	.	.	.
.	.	.	.	.	32AA/	.	.	.	.	.	.	.	.	.	.	.	.
.	.	.	.	.	32AA/	.	.	.	.	.	.	.	.	.	.	.	.
.	.	.	.	.	32AA/	.	.	.	.	.	.	.	.	.	.	.	.
.	.	4r	4r	(8ee\	32AA/	.	.	.	.	4r	4r	.	.	4r	4aa'\	4r	4r
.	.	.	.	.	32AA/	.	.	.	.	.	.	.	.	.	.	.	.
.	.	.	.	.	32AA/	.	.	.	.	.	.	.	.	.	.	.	.
.	.	.	.	.	32AA/	.	.	.	.	.	.	.	.	.	.	.	.
.	.	.	.	8gg\J)	32AA/	.	.	.	.	.	.	.	.	.	.	.	.
.	.	.	.	.	32AA/	.	.	.	.	.	.	.	.	.	.	.	.
.	.	.	.	.	32AA/	.	.	.	.	.	.	.	.	.	.	.	.
.	.	.	.	.	32AA/	.	.	.	.	.	.	.	.	.	.	.	.
.	.	(8d\L	(8f#/L	(8dd\L	32AA/	.	.	.	.	4r	4r	.	.	4dd\	(8dd\L	(8dd\L	(8dd\L
.	.	.	.	.	32AA/	.	.	.	.	.	.	.	.	.	.	.	.
.	.	.	.	.	32AA/	.	.	.	.	.	.	.	.	.	.	.	.
.	.	.	.	.	32AA/	.	.	.	.	.	.	.	.	.	.	.	.
.	.	8f#\J)	8dd/J)	8ff#\J)	32AA/	.	.	.	.	.	.	.	.	.	8ff#\J)	8ff#\J)	8ff#\J)
.	.	.	.	.	32AA/	.	.	.	.	.	.	.	.	.	.	.	.
.	.	.	.	.	32AA/	.	.	.	.	.	.	.	.	.	.	.	.
.	.	.	.	.	32AA/JJJ	.	.	.	.	.	.	.	.	.	.	.	.
=35	=35	=35	=35	=35	=35	=35	=35	=35	=35	=35	=35	=35	=35	=35	=35	=35	=35
4D\	4d\	(8a\L	4ff#\	(8aa\L	4D\	4d/	4dd\	4d\	4d\	4d\	4d\	2f#/	2a\	2ff#\	2aa\	(8aa\L	(8aa\L
.	.	8f#\)	.	8ff#\)	.	.	.	.	.	.	.	.	.	.	.	8ff#\)	8ff#\)
4D\	4d\	(8a\	(8ff#\L	(8aa\	4D\	4d/	4dd\	4d\	4d\	4d\	4d\	.	.	.	.	(8aa\	(8aa\
.	.	8dd\)	8dd\)	8ddd\)	.	.	.	.	.	.	.	.	.	.	.	8ddd\)	8ddd\)
4D\	4d\	(8b\	(8gg\	(8bb\	4D\	4d/	4dd\	4d\	4d\	4d\	4d\	(4gn\	(4b\	(4gg\	(4bb\	(8bb\	(8bb\
.	.	8dd\J)	8dd\J)	8ddd\J)	.	.	.	.	.	.	.	.	.	.	.	8ddd\J)	8ddd\J)
=36	=36	=36	=36	=36	=36	=36	=36	=36	=36	=36	=36	=36	=36	=36	=36	=36	=36
2.D\	2.d\	4a'\	4ff#'\	4aa'\	2D\	2d/	2dd\	2d\	2d\	2.d\	2.d\	4f#/)	4a\)	2ff#\)	2aa\)	4aa'\	4aa'\
.	.	4a'\	4ff#'\	4aa'\	.	.	.	.	.	.	.	4r	4r	.	.	4aa'\	4aa'\
.	.	(4g#\	(4ee#\	(4gg#\	4r	4d/	4dd\	4d\	4d\	.	.	4r	4r	(4ee#\	(4gg#\	(4gg#\	(4gg#\
=37	=37	=37	=37	=37	=37	=37	=37	=37	=37	=37	=37	=37	=37	=37	=37	=37	=37
8D\L	8d\L	4a'\)	4ff#'\)	4aa'\)	4D\	4d/	4dd\	4d\	4d\	8d\L	8d\L	2f#/	2a\	2ff#\)	2aa\)	4aa'\)	4aa'\)
8DD\	8D\	.	.	.	.	.	.	.	.	8D\	8D\	.	.	.	.	.	.
8D\	8d\	(8a\L	(8ff#\L	(8aa\L	8D\L	8d/L	8dd\L	8d\L	8d\L	8d\	8d\	.	.	.	.	(8aa\L	(8aa\L
8DD\	8D\	8dd\)	8dd\)	8ddd\)	8D\	8d/	8dd\	8d\	8d\	8D\	8D\	.	.	.	.	8ddd\)	8ddd\)
8D\	8d\	(8b\	(8gg\	(8bb\	8D\	8d/	8dd\	8d\	8d\	8d\	8d\	(4gn\	(4b\	(4gg\	(4bb\	(8bb\	(8bb\
8DD\J	8D\J	8dd\J)	8dd\J)	8ddd\J)	8D\J	8d/J	8dd\J	8d\J	8d\J	8D\J	8D\J	.	.	.	.	8ddd\J)	8ddd\J)
=38	=38	=38	=38	=38	=38	=38	=38	=38	=38	=38	=38	=38	=38	=38	=38	=38	=38
2D\	2d\	4a'\	4ff#'\	4aa'\	4D\	2d/	2dd\	2d\	2d\	2d\	2d\	4f#/)	4a\)	2ff#\)	2aa\)	4aa'\	4aa'\
.	.	4a'\	4ff#'\	4aa'\	4r	.	.	.	.	.	.	4r	4r	.	.	4aa'\	4aa'\
(8D\L	(8d\L	(8d\L	4r	(8dd\L	4r	4r	4r	4r	4r	(8d\L	(8d\L	4r	4r	4r	(8dd\L	(8dd\L	(8dd\L
8C#\J)	8c#\J)	8f#\J)	.	8ff#\J)	.	.	.	.	.	8c#\J)	8c#\J)	.	.	.	8ff#\J)	8ff#\J)	8ff#\J)
=39	=39	=39	=39	=39	=39	=39	=39	=39	=39	=39	=39	=39	=39	=39	=39	=39	=39
2BB\	2B\	4g'\	[2.dd/ [2.d/	4gg'\	4D\	[2.d/	[2.dd\	[2.d\	[2.d\	2B\	2B\	[2.d/	[2.dd\	[2.dd\	4gg'\	4gg'\	4gg'\
.	.	(4g\	.	(4gg\	4D\	.	.	.	.	.	.	.	.	.	(4gg\	(4gg\	(4gg\
4AA\	4A\	4f#\)	.	4ff#\)	4D\	.	.	.	.	4A\	4A\	.	.	.	4ff#\)	4ff#\)	4ff#\)
=40	=40	=40	=40	=40	=40	=40	=40	=40	=40	=40	=40	=40	=40	=40	=40	=40	=40
2GG\	2G\	2.e\	2dd/] 2d/]	4ee'\	4D\	4d/]	4dd\]	4d\]	4d\]	4G\	4G\	4d/]	4dd\]	2.dd\]	4ee'\	4ee'\	4ee'\
.	.	.	.	4ee'\	4r	4r	4r	4r	4r	4r	4r	4gn\	4b\	.	4ee'\	4ee'\	4ee'\
4EE\	4E\	.	(8b/L	4bbz'\	4r	4r	4r	4r	4r	4r	4r	4gn\	4b\	.	4bbz'\	4bbz'\	4bbz'\
.	.	.	8g/J)	.	.	.	.	.	.	.	.	.	.	.	.	.	.
=41	=41	=41	=41	=41	=41	=41	=41	=41	=41	=41	=41	=41	=41	=41	=41	=41	=41
2.AA\	2.A\	(2.eTt\	2.c#/	(2.gTt/	4AA/	2.a/	2.ee\	2.A/	2.e\	2.c#\	2.e\	2.gn\	2.cc#\	(2.gTt/	(2.gTt/	(2.gTt/	(2.gTt/
.	.	.	.	.	4r	.	.	.	.	.	.	.	.	.	.	.	.
.	.	.	.	.	4r	.	.	.	.	.	.	.	.	.	.	.	.
=42	=42	=42	=42	=42	=42	=42	=42	=42	=42	=42	=42	=42	=42	=42	=42	=42	=42
4DD\	4D\	4d\	4d/	4f#/	4D\	4dd\	4ff#\	4d\	4f#\	4d\	4f#\	4f#/	4dd\	4f#/	4f#/	4f#/	4f#/
4r	4r	4r	4r	4r	4r	4r	4r	4r	4r	4r	4r	4r	4r	4r	4r	4r	4r
4r	4r	4d\	4d/	4ddd\	4r	4r	4r	4r	4r	4r	4r	4r	4r	4dd\	4ddd\	4ddd\	4ddd\
=43	=43	=43	=43	=43	=43	=43	=43	=43	=43	=43	=43	=43	=43	=43	=43	=43	=43
2.FF#\	2.F#\	2.d/ 2.A/	(2.ccTt\	(2.ccTt\	4D\	[2.d/	[2.dd\	[2.D/	[2.d\	2.D\	2.A\	2.a\	2.dd\	2.d/	(2.ccTt\	(2.ccTt\	(2.ccTt\
.	.	.	.	.	4r	.	.	.	.	.	.	.	.	.	.	.	.
.	.	.	.	.	4r	.	.	.	.	.	.	.	.	.	.	.	.
=44	=44	=44	=44	=44	=44	=44	=44	=44	=44	=44	=44	=44	=44	=44	=44	=44	=44
4GG\	4G\	4d\ 4B\	4b\	4b\	4D\	4d/]	4dd\]	4D/]	4d\]	4G\	4B\	4b\	4dd\	4b\	4b\	4b\	4b\
4r	4r	4r	4r	4r	4r	4r	4r	4r	4r	4r	4r	4r	4r	4r	4r	4r	4r
4r	4r	4r	4bb\	4ddd\	4r	4r	4r	4r	4r	4r	4r	4r	4r	4bb\	4ddd\	4ddd\	4ddd\
=45	=45	=45	=45	=45	=45	=45	=45	=45	=45	=45	=45	=45	=45	=45	=45	=45	=45
2.r	2.r	2.r	2.r	2.r	2.r	2.r	2.r	2.r	2.r	2.r	2.r	2.r	2.r	2.r	2.r	2.r	2.r
=46	=46	=46	=46	=46	=46	=46	=46	=46	=46	=46	=46	=46	=46	=46	=46	=46	=46
2.r	2.r	2.r	2.r	2.r	2.r	2.r	2.r	2.r	2.r	2.r	2.r	2.r	2.r	2.r	2.r	2.r	2.r
=47	=47	=47	=47	=47	=47	=47	=47	=47	=47	=47	=47	=47	=47	=47	=47	=47	=47
8AAA/L	8AA/L	8G/L	[2.c#Tt/	[2.eTt/	2.r	2.r	2.r	2.r	2.r	[2.c#Tt\	[2.c#Tt\	2.r	2.r	[2.eeTt\	[2.ggTt\	[2.ccc#Tt\	[2.ccc#Tt\
8AAA/	8AA/	8G/	.	.	.	.	.	.	.	.	.	.	.	.	.	.	.
8AAA/	8AA/	8G/	.	.	.	.	.	.	.	.	.	.	.	.	.	.	.
8AAA/	8AA/	8G/	.	.	.	.	.	.	.	.	.	.	.	.	.	.	.
8AAA/	8AA/	8G/	.	.	.	.	.	.	.	.	.	.	.	.	.	.	.
8AAA/J	8AA/J	8G/J	.	.	.	.	.	.	.	.	.	.	.	.	.	.	.
=48	=48	=48	=48	=48	=48	=48	=48	=48	=48	=48	=48	=48	=48	=48	=48	=48	=48
8AAA/L	8AA/L	8G/L	(2.c#Tt/]	(2.eTt/]	2.r	2.r	2.r	2.r	2.r	(2.c#Tt\]	(2.c#Tt\]	2.r	2.r	(2.ee\]	(2.ggTt\]	(2.ccc#Tt\]	(2.ccc#Tt\]
8AAA/	8AA/	8G/	.	.	.	.	.	.	.	.	.	.	.	.	.	.	.
8AAA/	8AA/	8G/	.	.	.	.	.	.	.	.	.	.	.	.	.	.	.
8AAA/	8AA/	8G/	.	.	.	.	.	.	.	.	.	.	.	.	.	.	.
8AAA/	8AA/	8G/	.	.	.	.	.	.	.	.	.	.	.	.	.	.	.
8AAA/J	8AA/J	8G/J	.	.	.	.	.	.	.	.	.	.	.	.	.	.	.
=49	=49	=49	=49	=49	=49	=49	=49	=49	=49	=49	=49	=49	=49	=49	=49	=49	=49
4DD\	4D\	4F#/	4d/	4dd/ 4d/	4D\	2f#/	2dd\	2F#/	2d\	4d\	4d\	4f#/	4dd\	4dd\	4ff#\	4ddd\	4ddd\
4r	4r	4r	4d/	4dd/ 4d/	4D\	.	.	.	.	4r	4r	4f#/	4dd\	4r	4r	4r	4r
4AAA/	4AA/	4cc#\ 4e\	(8e/L	(8ee\L	4AA/	4a/	4ee\	4A/	4e\	4A\	4A\	(8gn\L	(8ee\L	4ee\	4gg\	4ccc#\	4ccc#\
.	.	.	8f#/J)	8ff#\J)	.	.	.	.	.	.	.	8a\J)	8ff#\J)	.	.	.	.
=50	=50	=50	=50	=50	=50	=50	=50	=50	=50	=50	=50	=50	=50	=50	=50	=50	=50
4DD\	4D\	4dd\ 4f#\	4d'/	4dd'\	4D\	2dd\	2ff#\	2d\	2f#\	4d\	4d\	4f#/	4dd\	4ff#\	4ff#\	4ddd\	4ddd\
4r	4r	4r	4d'/	4dd'\	4D\	.	.	.	.	4r	4r	4f#/	4dd\	4r	4r	4r	4r
4AAA/	4AA/	(8a\L	(8aa\L	(8aa\L	4AA/	4ff#\	4aa\	4f#\	4a\	4A\	4A\	4f#/	4a\	4aa\	4aa\	4ccc#\	4ccc#\
.	.	8f#\J)	8ff#\J)	8ff#\J)	.	.	.	.	.	.	.	.	.	.	.	.	.
=51	=51	=51	=51	=51	=51	=51	=51	=51	=51	=51	=51	=51	=51	=51	=51	=51	=51
4DD\	4D\	4dd\ 4f#\	4dd'\	4dd'\	4D\	2dd\	2ff#\	2d\	2f#\	4d\	4d\	4f#/	4dd\	4ff#\	4ff#\	4ddd\	4ddd\
4r	4r	4r	4dd'\	4dd'\	4D\	.	.	.	.	4r	4r	4f#/	4dd\	4r	4r	4r	4r
4AAA/	4AA/	4cc#\ 4e\	(8ee\L	4ccc#'\	4AA/	4a/	4ee\	4A/	4e\	4AA/	4AA/	(8gn\L	(8ee\L	4ee\	4gg\	4ccc#'\	4ccc#'\
.	.	.	8ff#\J)	.	.	.	.	.	.	.	.	8a\J)	8ff#\J)	.	.	.	.
=52	=52	=52	=52	=52	=52	=52	=52	=52	=52	=52	=52	=52	=52	=52	=52	=52	=52
4DD'\	4D'\	4dd'\ 4d\	4dd'\	4ddd'\	4D\	4f#/	4dd\	4F#/	4d\	4D\	4D\	4f#'/	4dd'\	4dd'\	4ff#'\	4ddd'\	4ddd'\
4r	4r	4r	4r	4r	4r	4r	4r	4r	4r	4r	4r	4r	4r	4r	4r	4r	4r
=:||:@	=:||:@	=:||:@	=:||:@	=:||:@	=:||:@	=:||:@	=:||:@	=:||:@	=:||:@	=:||:@	=:||:@	=:||:@	=:||:@	=:||:@	=:||:@	=:||:@	=:||:@
*>C	*>C	*>C	*>C	*>C	*>C	*>C	*>C	*>C	*>C	*>C	*>C	*>C	*>C	*>C	*>C	*>C	*>C
!! Trio
*k[b-e-]	*k[b-e-]	*k[b-e-]	*k[b-e-]	*k[b-e-]	*k[b-e-]	*k[f#c#g#d#]	*k[f#c#g#d#]	*k[f#c#g#d#]	*k[f#c#g#d#]	*k[b-e-]	*k[b-e-]	*k[f#c#g#d#a#]	*k[f#c#g#d#a#]	*k[b-e-]	*k[b-e-]	*k[b-e-]	*k[b-e-]
4r	4r	4r	4r	(4dd\	4r	4r	4r	4r	4r	4r	4r	4r	4r	4r	(4dd\	4r	4r
=53	=53	=53	=53	=53	=53	=53	=53	=53	=53	=53	=53	=53	=53	=53	=53	=53	=53
2.r	2.r	2.r	2.r	2ff\)	2.r	2.r	2.r	2.r	2.r	2.r	2.r	2.r	2.r	2.r	2ff\)	2.r	2.r
.	.	.	.	(4dd\	.	.	.	.	.	.	.	.	.	.	(4dd\	.	.
=54	=54	=54	=54	=54	=54	=54	=54	=54	=54	=54	=54	=54	=54	=54	=54	=54	=54
2.r	2.r	2.r	2.r	2ff\)	2.r	2.r	2.r	2.r	2.r	2.r	2.r	2.r	2.r	2.r	2ff\)	2.r	2.r
.	.	.	.	(8dd\L	.	.	.	.	.	.	.	.	.	.	(8dd\L	.	.
.	.	.	.	8ee-\J	.	.	.	.	.	.	.	.	.	.	8ee-\J	.	.
=55	=55	=55	=55	=55	=55	=55	=55	=55	=55	=55	=55	=55	=55	=55	=55	=55	=55
4BB-"\	4B-"\	4f"\	4d"/ 4B-"/	8ff\L	2.r	2.r	2.r	2.r	2.r	2.r	2.r	2.r	2.r	2.r	8ff\L	2.r	2.r
.	.	.	.	8gg\	.	.	.	.	.	.	.	.	.	.	8gg\	.	.
4BB-"\	4B-"\	4f"\	4d"/ 4B-"/	8aa\	.	.	.	.	.	.	.	.	.	.	8aa\	.	.
.	.	.	.	8bb-\	.	.	.	.	.	.	.	.	.	.	8bb-\	.	.
4BB-"\	4B-"\	4f"\	4d"/ 4B-"/	8aa\	.	.	.	.	.	.	.	.	.	.	8aa\	.	.
.	.	.	.	8gg\J	.	.	.	.	.	.	.	.	.	.	8gg\J	.	.
=56	=56	=56	=56	=56	=56	=56	=56	=56	=56	=56	=56	=56	=56	=56	=56	=56	=56
4C"\	4c"\	4f"\	4e-"/ 4A"/	8ff\L	2.r	2.r	2.r	2.r	2.r	2.r	2.r	2.r	2.r	2.r	8ff\L	2.r	2.r
.	.	.	.	8ee-\	.	.	.	.	.	.	.	.	.	.	8ee-\	.	.
4r	4r	4r	4r	8dd\	.	.	.	.	.	.	.	.	.	.	8dd\	.	.
.	.	.	.	8cc\	.	.	.	.	.	.	.	.	.	.	8cc\	.	.
4r	4r	4r	4r	8b-\	.	.	.	.	.	.	.	.	.	.	8b-\	.	.
.	.	.	.	8a\J)	.	.	.	.	.	.	.	.	.	.	8a\J)	.	.
=57	=57	=57	=57	=57	=57	=57	=57	=57	=57	=57	=57	=57	=57	=57	=57	=57	=57
4FF"\	4F"\	4c"\	4e-"/ 4A"/	(8g/L	2.r	2.r	2.r	2.r	2.r	2.r	2.r	2.r	2.r	2.r	(8g/L	2.r	2.r
.	.	.	.	8f/	.	.	.	.	.	.	.	.	.	.	8f/	.	.
4FF"\	4F"\	4c"\	4e-"/ 4A"/	8g/	.	.	.	.	.	.	.	.	.	.	8g/	.	.
.	.	.	.	8a/	.	.	.	.	.	.	.	.	.	.	8a/	.	.
4FF"\	4F"\	4c"\	4e-"/ 4A"/	8b-/	.	.	.	.	.	.	.	.	.	.	8b-/	.	.
.	.	.	.	8cc/J)	.	.	.	.	.	.	.	.	.	.	8cc/J)	.	.
=58	=58	=58	=58	=58	=58	=58	=58	=58	=58	=58	=58	=58	=58	=58	=58	=58	=58
4BB-"\	4B-"\	4B-"/	4d"/ 4B-"/	(8dd\L	2.r	2.r	2.r	2.r	2.r	2.r	4r	2.r	2.r	2.r	(8dd\L	2.r	2.r
.	.	.	.	8ee-\	.	.	.	.	.	.	.	.	.	.	8ee-\	.	.
4r	4r	4r	4r	8dd\	.	.	.	.	.	.	4r	.	.	.	8dd\	.	.
.	.	.	.	8cc\	.	.	.	.	.	.	.	.	.	.	8cc\	.	.
4FF"\	4F"\	4c"\	4e-"/ 4A"/	8b-\	.	.	.	.	.	.	(8B-\L	.	.	.	8b-\J)	.	.
.	.	.	.	8cc\J)	.	.	.	.	.	.	8c\J)	.	.	.	8r	.	.
=59	=59	=59	=59	=59	=59	=59	=59	=59	=59	=59	=59	=59	=59	=59	=59	=59	=59
4BB-"\	4B-"\	4B-"/	4d"/ 4B-"/	(8dd\L	2.r	2.r	2.r	2.r	2.r	2.r	(8d\L	2.r	2.r	2.r	2.r	2.r	2.r
.	.	.	.	8ee-\	.	.	.	.	.	.	8e-\	.	.	.	.	.	.
4r	4r	4r	4r	8dd\	.	.	.	.	.	.	8d\	.	.	.	.	.	.
.	.	.	.	8cc\	.	.	.	.	.	.	8c\	.	.	.	.	.	.
4FF"\	4F"\	4c"\	4e-"/ 4A"/	8b-\	.	.	.	.	.	.	8B-\	.	.	.	.	.	.
.	.	.	.	8cc\J)	.	.	.	.	.	.	8c\J)	.	.	.	.	.	.
=60	=60	=60	=60	=60	=60	=60	=60	=60	=60	=60	=60	=60	=60	=60	=60	=60	=60
4BB-"\	4B-"\	4B-"/	4d"/ 4B-"/	(8dd\L	2.r	2.r	2.r	2.r	2.r	2.r	(8d\L	2.r	2.r	2.r	2.r	2.r	2.r
.	.	.	.	8ee-\	.	.	.	.	.	.	8e-\	.	.	.	.	.	.
4r	4r	4r	4r	8dd\	.	.	.	.	.	.	8d\	.	.	.	.	.	.
.	.	.	.	8cc\	.	.	.	.	.	.	8c\	.	.	.	.	.	.
4FF"\	4F"\	4c"\	4e-"/ 4A"/	8b-\	.	.	.	.	.	.	8B-\	.	.	.	.	.	.
.	.	.	.	8cc\J)	.	.	.	.	.	.	8c\J)	.	.	.	.	.	.
=61	=61	=61	=61	=61	=61	=61	=61	=61	=61	=61	=61	=61	=61	=61	=61	=61	=61
4BB-"\	4B-"\	4B-"/	4d"/ 4B-"/	(8dd\L	2.r	2.r	2.r	2.r	2.r	2.r	(8d\L	2.r	2.r	2.r	2.r	2.r	2.r
.	.	.	.	8ee-\	.	.	.	.	.	.	8e-\	.	.	.	.	.	.
4r	4r	4r	4r	8dd\	.	.	.	.	.	.	8d\	.	.	.	.	.	.
.	.	.	.	8cc\	.	.	.	.	.	.	8c\	.	.	.	.	.	.
4FF#"\	4F#"\	4c"\	4a"/ 4d"/	8b-\	.	.	.	.	.	.	8B-\	.	.	.	.	.	.
.	.	.	.	8a\J)	.	.	.	.	.	.	8A\J)	.	.	.	.	.	.
=62	=62	=62	=62	=62	=62	=62	=62	=62	=62	=62	=62	=62	=62	=62	=62	=62	=62
4GG"\	4G"\	4B-"/	4b-"/ 4d"/	(8b-/L	2.r	2.r	2.r	2.r	2.r	2.r	(8B-\L	2.r	2.r	2.r	2.r	2.r	2.r
.	.	.	.	8cc/	.	.	.	.	.	.	8c\	.	.	.	.	.	.
4r	4r	4r	4r	8b-/	.	.	.	.	.	.	8B-\	.	.	.	.	.	.
.	.	.	.	8a/	.	.	.	.	.	.	8A\	.	.	.	.	.	.
4BBB-"/	4BB-"/	4B-"/	4d"/ 4G"/	8g/	.	.	.	.	.	.	8G\	.	.	.	.	.	.
.	.	.	.	8f/J)	.	.	.	.	.	.	8F\J)	.	.	.	.	.	.
=63	=63	=63	=63	=63	=63	=63	=63	=63	=63	=63	=63	=63	=63	=63	=63	=63	=63
4CC"/	4C"/	4B-"/	4e"/ 4G"/	(8e/L	2.r	2.r	2.r	2.r	2.r	2.r	(8E\L	2.r	2.r	2.r	2.r	2.r	2.r
.	.	.	.	8g/	.	.	.	.	.	.	8G\	.	.	.	.	.	.
4r	4r	4r	4r	8cc/	.	.	.	.	.	.	8c\	.	.	.	.	.	.
.	.	.	.	8b-/	.	.	.	.	.	.	8B-\	.	.	.	.	.	.
4CC"/	4C"/	4B-"/	4e"/ 4G"/	8a/	.	.	.	.	.	.	8A\	.	.	.	.	.	.
.	.	.	.	8g/J)	.	.	.	.	.	.	8G\J)	.	.	.	.	.	.
=64	=64	=64	=64	=64	=64	=64	=64	=64	=64	=64	=64	=64	=64	=64	=64	=64	=64
4FF"\	4F"\	4A"/	4f"/ 4A"/	4f/	4r	4r	4r	4r	4r	4r	4F\	4r	4r	4r	4r	4r	4r
4r	4r	4r	4r	4r	4r	4r	4r	4r	4r	4r	4r	4r	4r	4r	4r	4r	4r
=:||:@	=:||:@	=:||:@	=:||:@	=:||:@	=:||:@	=:||:@	=:||:@	=:||:@	=:||:@	=:||:@	=:||:@	=:||:@	=:||:@	=:||:@	=:||:@	=:||:@	=:||:@
*>D	*>D	*>D	*>D	*>D	*>D	*>D	*>D	*>D	*>D	*>D	*>D	*>D	*>D	*>D	*>D	*>D	*>D
4r	4r	4r	4r	(8d/L	4r	4r	4r	4r	4r	4r	(8d\L	4r	4r	4r	(4ff\	4r	4r
.	.	.	.	8e-/J)	.	.	.	.	.	.	8e-\J)	.	.	.	.	.	.
=65	=65	=65	=65	=65	=65	=65	=65	=65	=65	=65	=65	=65	=65	=65	=65	=65	=65
2.r	2.r	2.r	4r	(8f/L	2.r	2.r	2.r	2.r	2.r	2.r	(8f\L	2.r	2.r	2.r	2aa-\)	2.r	2.r
.	.	.	.	8e-/	.	.	.	.	.	.	8e-\	.	.	.	.	.	.
.	.	.	4r	8d/	.	.	.	.	.	.	8d\	.	.	.	.	.	.
.	.	.	.	8c/	.	.	.	.	.	.	8c\	.	.	.	.	.	.
.	.	.	(4d/	8B/	.	.	.	.	.	.	8B\	.	.	.	(4ff\	.	.
.	.	.	.	8A-/J)	.	.	.	.	.	.	8A-\J)	.	.	.	.	.	.
=66	=66	=66	=66	=66	=66	=66	=66	=66	=66	=66	=66	=66	=66	=66	=66	=66	=66
2.r	2.r	2.r	2f/)	(8G/L	2.r	2.r	2.r	2.r	2.r	2.r	(8G\L	2.r	2.r	4r	2aa-\)	2.r	4r
.	.	.	.	8B/	.	.	.	.	.	.	8B\	.	.	.	.	.	.
.	.	.	.	8d/	.	.	.	.	.	.	8d\	.	.	4r	.	.	4r
.	.	.	.	8f/	.	.	.	.	.	.	8f\	.	.	.	.	.	.
.	.	.	(4B/	8e-/	.	.	.	.	.	.	8e-\	.	.	4g/	(4ff\	.	(4gg\
.	.	.	.	8d/J)	.	.	.	.	.	.	8d\J)	.	.	.	.	.	.
=67	=67	=67	=67	=67	=67	=67	=67	=67	=67	=67	=67	=67	=67	=67	=67	=67	=67
2.r	2.r	2.r	4c/)	(8c/L	2.r	2.r	2.r	2.r	2.r	2.r	4c\	2.r	2.r	(8c/L	4ee-\)	2.r	2eee-\)
.	.	.	.	8e-/	.	.	.	.	.	.	.	.	.	8e-/	.	.	.
.	.	.	4r	8g/	.	.	.	.	.	.	4r	.	.	8g/	4r	.	.
.	.	.	.	8cc/	.	.	.	.	.	.	.	.	.	8cc/	.	.	.
.	.	.	4r	8ee-/	.	.	.	.	.	.	4r	.	.	8ee-/	4r	.	(4ccc\
.	.	.	.	8dd/J)	.	.	.	.	.	.	.	.	.	8dd/J)	.	.	.
=68	=68	=68	=68	=68	=68	=68	=68	=68	=68	=68	=68	=68	=68	=68	=68	=68	=68
2.r	2.r	2.r	2.r	(8cc\L	2.r	2.r	2.r	2.r	2.r	2.r	2.r	2.r	2.r	(8cc\L	2.r	2.r	2eee-\)
.	.	.	.	8dd\	.	.	.	.	.	.	.	.	.	8dd\	.	.	.
.	.	.	.	8cc\	.	.	.	.	.	.	.	.	.	8cc\	.	.	.
.	.	.	.	8b-\	.	.	.	.	.	.	.	.	.	8b-\	.	.	.
.	.	.	.	8a\	.	.	.	.	.	.	.	.	.	8a\	.	.	(4ccc\
.	.	.	.	8g\J)	.	.	.	.	.	.	.	.	.	8g\J)	.	.	.
=69	=69	=69	=69	=69	=69	=69	=69	=69	=69	=69	=69	=69	=69	=69	=69	=69	=69
2.r	2.r	2.r	2.r	(8f#/L	2.r	2.r	2.r	2.r	2.r	2.r	2.r	2.r	2.r	(8f#/L	2.r	2.r	2ddd\)
.	.	.	.	8g/	.	.	.	.	.	.	.	.	.	8g/	.	.	.
.	.	.	.	8a/	.	.	.	.	.	.	.	.	.	8a/	.	.	.
.	.	.	.	8d/	.	.	.	.	.	.	.	.	.	8d/	.	.	.
.	.	.	.	8e/	.	.	.	.	.	.	.	.	.	8e/	.	.	(4ccc\
.	.	.	.	8f#/J)	.	.	.	.	.	.	.	.	.	8f#/J)	.	.	.
=70	=70	=70	=70	=70	=70	=70	=70	=70	=70	=70	=70	=70	=70	=70	=70	=70	=70
2.r	2.r	2.r	2.r	(8g\L	2.r	2.r	2.r	2.r	2.r	2.r	2.r	2.r	2.r	(8g\L	2.r	2.r	2bb-\)
.	.	.	.	8a\	.	.	.	.	.	.	.	.	.	8a\	.	.	.
.	.	.	.	8b-\	.	.	.	.	.	.	.	.	.	8b-\	.	.	.
.	.	.	.	8cc\	.	.	.	.	.	.	.	.	.	8cc\	.	.	.
.	.	.	.	8dd\	.	.	.	.	.	.	.	.	.	8dd\	.	.	(4gg\
.	.	.	.	8ee-\J)	.	.	.	.	.	.	.	.	.	8ee-\J)	.	.	.
=71	=71	=71	=71	=71	=71	=71	=71	=71	=71	=71	=71	=71	=71	=71	=71	=71	=71
4r	4r	4r	4r	(8cc/L	2.r	2.r	2.r	2.r	2.r	2.r	4r	2.r	2.r	(8cc\L	2.r	2.r	2eee-\)
.	.	.	.	8b-/	.	.	.	.	.	.	.	.	.	8b-\)	.	.	.
4r	4r	4r	4r	8cc/	.	.	.	.	.	.	4r	.	.	8cc'\	.	.	.
.	.	.	.	8a/	.	.	.	.	.	.	.	.	.	8a'\	.	.	.
4DD\	4D\	4d\	4cc\	8dd/	.	.	.	.	.	.	(4d\	.	.	8cc'\	.	.	(4ff#\
.	.	.	.	8d/J)	.	.	.	.	.	.	.	.	.	8dd'\J	.	.	.
=72	=72	=72	=72	=72	=72	=72	=72	=72	=72	=72	=72	=72	=72	=72	=72	=72	=72
[2.GGG/	[2.GG/	(8d\L	(8b\L	4g/	2.r	2.r	2.r	2.r	2.r	2.r	2f\)	2.r	2.r	2gg\	[2.b\	2.r	4gg\)
.	.	8e-\	8cc\	.	.	.	.	.	.	.	.	.	.	.	.	.	.
.	.	8f\	8dd\	4r	.	.	.	.	.	.	.	.	.	.	.	.	4r
.	.	8g\	8ee-\	.	.	.	.	.	.	.	.	.	.	.	.	.	.
.	.	8a-\	8ff\	(4ff\	.	.	.	.	.	.	(4d\	.	.	4r	.	.	4r
.	.	8f\J)	8dd\J)	.	.	.	.	.	.	.	.	.	.	.	.	.	.
=73	=73	=73	=73	=73	=73	=73	=73	=73	=73	=73	=73	=73	=73	=73	=73	=73	=73
2.GGG_/	2.GG_/	(8d\L	(8b\L	2aa-\)	2.r	2.r	2.r	2.r	2.r	2.r	2f\)	2.r	2.r	2.r	2.b_\	2.r	2.r
.	.	8e-\	8cc\	.	.	.	.	.	.	.	.	.	.	.	.	.	.
.	.	8f\	8dd\	.	.	.	.	.	.	.	.	.	.	.	.	.	.
.	.	8g\	8ee-\	.	.	.	.	.	.	.	.	.	.	.	.	.	.
.	.	8a-\	8ff\	(4ff\	.	.	.	.	.	.	(4d\	.	.	.	.	.	.
.	.	8f\J)	8dd\J)	.	.	.	.	.	.	.	.	.	.	.	.	.	.
=74	=74	=74	=74	=74	=74	=74	=74	=74	=74	=74	=74	=74	=74	=74	=74	=74	=74
2GGG/]	2GG/]	(8d\L	(8b\L	2aa-\)	2.r	2.r	2.r	2.r	2.r	2.r	2f\)	2.r	2.r	2.r	2b\]	2.r	2.r
.	.	8e-\	8cc\	.	.	.	.	.	.	.	.	.	.	.	.	.	.
.	.	8f\	8dd\	.	.	.	.	.	.	.	.	.	.	.	.	.	.
.	.	8g\	8ee-\	.	.	.	.	.	.	.	.	.	.	.	.	.	.
4BB\	4B\	8a-\	8ff\	(8gg\L	.	.	.	.	.	.	4B\	.	.	.	4dd\	.	.
.	.	8B\J)	8dd\J)	8ff\J)	.	.	.	.	.	.	.	.	.	.	.	.	.
=75	=75	=75	=75	=75	=75	=75	=75	=75	=75	=75	=75	=75	=75	=75	=75	=75	=75
(4C\	(4c\	4c\	4ee-\	(8ee-\L	2.r	2.r	2.r	2.r	2.r	2.r	(8c\L	2.r	2.r	2.r	4ee-\	2.r	2.r
.	.	.	.	8dd\	.	.	.	.	.	.	8d\	.	.	.	.	.	.
4E-\)	4e-\)	4r	4r	8cc\)	.	.	.	.	.	.	8e-\)	.	.	.	4r	.	.
.	.	.	.	(8gg\	.	.	.	.	.	.	(8g\	.	.	.	.	.	.
4AA\	4A\	4r	4c/	8ff\	.	.	.	.	.	.	8f\	.	.	.	4r	.	.
.	.	.	.	8ee-\J	.	.	.	.	.	.	8e-\J	.	.	.	.	.	.
=76	=76	=76	=76	=76	=76	=76	=76	=76	=76	=76	=76	=76	=76	=76	=76	=76	=76
(4BB-\	(4B-\	2.r	(4d/	8dd\L	2.r	2.r	2.r	2.r	2.r	2.r	8d\L	2.r	2.r	2.r	2.r	2.r	2.r
.	.	.	.	8cc\	.	.	.	.	.	.	8c\	.	.	.	.	.	.
4D\	4d\	.	4f/	8b-\)	.	.	.	.	.	.	8B-\)	.	.	.	.	.	.
.	.	.	.	(8ff\	.	.	.	.	.	.	(8f\	.	.	.	.	.	.
4DD\)	4D\)	.	4B-/)	8ee-\	.	.	.	.	.	.	8e-\	.	.	.	.	.	.
.	.	.	.	8dd\J	.	.	.	.	.	.	8d\J	.	.	.	.	.	.
=77	=77	=77	=77	=77	=77	=77	=77	=77	=77	=77	=77	=77	=77	=77	=77	=77	=77
2EE-\	2E-\	2.r	2G/	8cc\L	2.r	2.r	2.r	2.r	2.r	2.r	8c\L	2.r	2.r	2.r	2.r	2.r	2.r
.	.	.	.	8dd\	.	.	.	.	.	.	8d\	.	.	.	.	.	.
.	.	.	.	8cc\	.	.	.	.	.	.	8c\	.	.	.	.	.	.
.	.	.	.	8b-\	.	.	.	.	.	.	8B-\	.	.	.	.	.	.
4EE\	4E\	.	4B-/	8a\	.	.	.	.	.	.	8A\	.	.	.	.	.	.
.	.	.	.	8g\J)	.	.	.	.	.	.	8G\J)	.	.	.	.	.	.
=78	=78	=78	=78	=78	=78	=78	=78	=78	=78	=78	=78	=78	=78	=78	=78	=78	=78
4FF\	4F\	2.r	4A/	(8f\L	2.r	2.r	2.r	2.r	2.r	2.r	(8F\L	2.r	2.r	4r	4r	2.r	2.r
.	.	.	.	8a\	.	.	.	.	.	.	8A\	.	.	.	.	.	.
4r	4r	.	4r	8b-\	.	.	.	.	.	.	8B-\	.	.	4r	4r	.	.
.	.	.	.	8cc\	.	.	.	.	.	.	8c\	.	.	.	.	.	.
4r	4r	.	4r	8dd\	.	.	.	.	.	.	8d\	.	.	(4b-\	(4dd\	.	.
.	.	.	.	8ee-\J)	.	.	.	.	.	.	8e-\J)	.	.	.	.	.	.
=79	=79	=79	=79	=79	=79	=79	=79	=79	=79	=79	=79	=79	=79	=79	=79	=79	=79
2.r	2.r	2.r	2.r	2ff\	2.r	2.r	2.r	2.r	2.r	2d\	2f\	2.r	2.r	2dd\)	2ff\)	2.r	2.r
.	.	.	.	(4dd\	.	.	.	.	.	(4B-\	(4d\	.	.	(4b-\	(4dd\	.	.
=80	=80	=80	=80	=80	=80	=80	=80	=80	=80	=80	=80	=80	=80	=80	=80	=80	=80
2.r	2.r	2.r	2.r	2ff\)	2.r	2.r	2.r	2.r	2.r	2d\)	2f\)	2.r	2.r	2dd\)	2ff\)	2.r	2.r
.	.	.	.	(8dd\L	.	.	.	.	.	(8B-\L	(8d\L	.	.	(8b-\L	(8dd\L	.	.
.	.	.	.	8ee-\J	.	.	.	.	.	8c\J	8e-\J	.	.	8cc\J	8ee-\J	.	.
=81	=81	=81	=81	=81	=81	=81	=81	=81	=81	=81	=81	=81	=81	=81	=81	=81	=81
4BBB-"/	4BB-"/	4f"\	4d"/ 4B-"/	8ff\L	2.r	2.r	2.r	2.r	2.r	4d\)	4f\)	2.r	2.r	4dd\)	8ff\L	2.r	2.r
.	.	.	.	8gg\	.	.	.	.	.	.	.	.	.	.	8gg\	.	.
4BBB-"/	4BB-"/	4f"\	4d"/ 4B-"/	8aa\	.	.	.	.	.	4B-\	4d\	.	.	4r	8aa\	.	.
.	.	.	.	8bb-\	.	.	.	.	.	.	.	.	.	.	8bb-\	.	.
4BBB-"/	4BB-"/	4f"\	4d"/ 4B-"/	8aa\	.	.	.	.	.	4B-\	4d\	.	.	4r	8aa\	.	.
.	.	.	.	8gg\J	.	.	.	.	.	.	.	.	.	.	8gg\J	.	.
=82	=82	=82	=82	=82	=82	=82	=82	=82	=82	=82	=82	=82	=82	=82	=82	=82	=82
4CC"/	4C"/	4f"\	4e-"/ 4A"/	8ff\L	2.r	2.r	2.r	2.r	2.r	4c\	4e-\	2.r	2.r	2.r	8ff\L	2.r	2.r
.	.	.	.	8ee-\	.	.	.	.	.	.	.	.	.	.	8ee-\	.	.
4r	4r	4r	4r	8dd\	.	.	.	.	.	4r	4r	.	.	.	8dd\	.	.
.	.	.	.	8cc\	.	.	.	.	.	.	.	.	.	.	8cc\	.	.
4r	4r	4r	4r	8b-\	.	.	.	.	.	4r	4r	.	.	.	8b-\	.	.
.	.	.	.	8a\J)	.	.	.	.	.	.	.	.	.	.	8a\J)	.	.
=83	=83	=83	=83	=83	=83	=83	=83	=83	=83	=83	=83	=83	=83	=83	=83	=83	=83
4FF"\	4F"\	4c"\	4e-"/ 4A"/	(8g/L	2.r	2.r	2.r	2.r	2.r	4F\	4c\	2.r	2.r	2.r	(8g/L	2.r	2.r
.	.	.	.	8f/	.	.	.	.	.	.	.	.	.	.	8f/	.	.
4FF"\	4F"\	4c"\	4e-"/ 4A"/	8g/	.	.	.	.	.	4F\	4c\	.	.	.	8g/	.	.
.	.	.	.	8a/	.	.	.	.	.	.	.	.	.	.	8a/	.	.
4FF"\	4F"\	4c"\	4e-"/ 4A"/	8b-/	.	.	.	.	.	4F\	4c\	.	.	.	8b-/	.	.
.	.	.	.	8cc/J)	.	.	.	.	.	.	.	.	.	.	8cc/J)	.	.
=84	=84	=84	=84	=84	=84	=84	=84	=84	=84	=84	=84	=84	=84	=84	=84	=84	=84
4BBB-"/	4BB-"/	4B-"/	4d"/ 4B-"/	(8dd\L	2.r	2.r	2.r	2.r	2.r	4B-\	4d\	2.r	2.r	2.r	(8dd\L	2.r	(2.bb-\
.	.	.	.	8ee-\	.	.	.	.	.	.	.	.	.	.	8ee-\	.	.
4r	4r	4r	4r	8dd\	.	.	.	.	.	4r	4r	.	.	.	8dd\	.	.
.	.	.	.	8cc\	.	.	.	.	.	.	.	.	.	.	8cc\	.	.
4r	4r	4r	4r	8b-\	.	.	.	.	.	4r	4r	.	.	.	8b-\	.	.
.	.	.	.	8dd\J)	.	.	.	.	.	.	.	.	.	.	8dd\J)	.	.
=85	=85	=85	=85	=85	=85	=85	=85	=85	=85	=85	=85	=85	=85	=85	=85	=85	=85
4BBB-"/	4BB-"/	4B-"/	4e-"/ 4c"/	(8ee-\L	2.r	2.r	2.r	2.r	2.r	2.r	2.r	2.r	2.r	2.r	(8ee-\L	2.r	2.aa\
.	.	.	.	8ff\	.	.	.	.	.	.	.	.	.	.	8ff\	.	.
4r	4r	4r	4r	8ee-\	.	.	.	.	.	.	.	.	.	.	8ee-\	.	.
.	.	.	.	8dd\	.	.	.	.	.	.	.	.	.	.	8dd\	.	.
4r	4r	4r	4r	8cc\	.	.	.	.	.	.	.	.	.	.	8cc\	.	.
.	.	.	.	8ee-\J)	.	.	.	.	.	.	.	.	.	.	8ee-\J)	.	.
=86	=86	=86	=86	=86	=86	=86	=86	=86	=86	=86	=86	=86	=86	=86	=86	=86	=86
4BBB-"/	4BB-"/	4B-"/	4f"/ 4d"/	(8ff\L	2.r	2.r	2.r	2.r	2.r	2.r	2.r	2.r	2.r	2.r	(8ff\L	2.r	2.aa-\
.	.	.	.	8gg\	.	.	.	.	.	.	.	.	.	.	8gg\	.	.
4r	4r	4r	4r	8ff\	.	.	.	.	.	.	.	.	.	.	8ff\	.	.
.	.	.	.	8ee-\	.	.	.	.	.	.	.	.	.	.	8ee-\	.	.
4r	4r	4r	4r	8dd\	.	.	.	.	.	.	.	.	.	.	8dd\	.	.
.	.	.	.	8ff\J)	.	.	.	.	.	.	.	.	.	.	8ff\J)	.	.
=87	=87	=87	=87	=87	=87	=87	=87	=87	=87	=87	=87	=87	=87	=87	=87	=87	=87
4EE-"\	4E-"\	4e-"\	4g"/ 4B-"/	4gg\	2.r	2.r	2.r	2.r	2.r	2.r	2.r	2.r	2.r	2.r	4gg\	2.r	4gg\)
4r	4r	4r	4r	4r	.	.	.	.	.	.	.	.	.	.	4r	.	4r
4r	4r	4r	4r	4r	.	.	.	.	.	.	.	.	.	.	4r	.	4r
=88	=88	=88	=88	=88	=88	=88	=88	=88	=88	=88	=88	=88	=88	=88	=88	=88	=88
2.r	2.r	2.r	4r	4r	2.r	2.r	2.r	2.r	2.r	2.r	2.r	2.r	2.r	2.r	4r	2.r	2.r
.	.	.	4r	4r	.	.	.	.	.	.	.	.	.	.	4r	.	.
.	.	.	(4f#/	(4ff#\	.	.	.	.	.	.	.	.	.	.	(4ff#\	.	.
=89	=89	=89	=89	=89	=89	=89	=89	=89	=89	=89	=89	=89	=89	=89	=89	=89	=89
2.r	2.r	2.r	2a/)	2aa\)	2.r	2.r	2.r	2.r	2.r	2.r	2.r	2.r	2.r	2.r	2aa\)	2.r	2.r
.	.	.	(4g/	(4gg\	.	.	.	.	.	.	.	.	.	.	(4gg\	.	.
=90	=90	=90	=90	=90	=90	=90	=90	=90	=90	=90	=90	=90	=90	=90	=90	=90	=90
2.r	2.r	4r	2b-/)	2bb-\)	2.r	2.r	2.r	2.r	2.r	2.r	2.r	2.r	2.r	2.r	2bb-\)	2.r	2.r
.	.	4r	.	.	.	.	.	.	.	.	.	.	.	.	.	.	.
.	.	(4G/	4G/	4gg\	.	.	.	.	.	.	.	.	.	.	4gg\	.	.
=91	=91	=91	=91	=91	=91	=91	=91	=91	=91	=91	=91	=91	=91	=91	=91	=91	=91
[2.EE-\	[2.E-\	2.B/	2.B/	(4ee-\	2.r	2.r	2.r	2.r	2.r	2.r	2.r	2.r	2.r	2.r	(4ee-\	2.r	2.r
.	.	.	.	4ff\	.	.	.	.	.	.	.	.	.	.	4ff\	.	.
.	.	.	.	4dd\)	.	.	.	.	.	.	.	.	.	.	4dd\)	.	.
=92	=92	=92	=92	=92	=92	=92	=92	=92	=92	=92	=92	=92	=92	=92	=92	=92	=92
2EE-\]	2E-\]	2.c\)	2.c/	(4ee-\	2.r	2.r	2.r	2.r	2.r	2.r	2.r	2.r	2.r	2.r	(4ee-\	2.r	2.r
.	.	.	.	4cc\	.	.	.	.	.	.	.	.	.	.	4cc\	.	.
4EE\	4E\	.	.	4gg\)	.	.	.	.	.	.	.	.	.	.	4gg\)	.	.
=93	=93	=93	=93	=93	=93	=93	=93	=93	=93	=93	=93	=93	=93	=93	=93	=93	=93
2.FF\	2.F\	2d\	2d/	(8b-\L	2.r	2.r	2.r	2.r	2.r	2.r	2.r	2.r	2.r	2.r	(8b-\L	2.r	2.r
.	.	.	.	8cc\	.	.	.	.	.	.	.	.	.	.	8cc\	.	.
.	.	.	.	8dd\	.	.	.	.	.	.	.	.	.	.	8dd\	.	.
.	.	.	.	8ee-\	.	.	.	.	.	.	.	.	.	.	8ee-\	.	.
.	.	(8A/L	4e-/	8cc\	.	.	.	.	.	.	.	.	.	.	8cc\	.	.
.	.	8c/J)	.	8a\J)	.	.	.	.	.	.	.	.	.	.	8a\J)	.	.
=94	=94	=94	=94	=94	=94	=94	=94	=94	=94	=94	=94	=94	=94	=94	=94	=94	=94
4BBB-/	4BB-/	4B-/	4d/	4b-\	4r	4r	4r	4r	4r	4r	4r	4r	4r	4r	4b-\	4r	4r
4r	4r	4r	4r	4r	4r	4r	4r	4r	4r	4r	4r	4r	4r	4r	4r	4r	4r
=:|!@	=:|!@	=:|!@	=:|!@	=:|!@	=:|!@	=:|!@	=:|!@	=:|!@	=:|!@	=:|!@	=:|!@	=:|!@	=:|!@	=:|!@	=:|!@	=:|!@	=:|!@
*>E	*>E	*>E	*>E	*>E	*>E	*>E	*>E	*>E	*>E	*>E	*>E	*>E	*>E	*>E	*>E	*>E	*>E
4r	4r	4r	4r	(4dd\	4r	4r	4r	4r	4r	4r	4r	4r	4r	(4b-\	(4dd\	4r	4r
=95	=95	=95	=95	=95	=95	=95	=95	=95	=95	=95	=95	=95	=95	=95	=95	=95	=95
2.r	2.r	2.r	4b-\	2ff\)	2.r	2.r	2.r	2.r	2.r	2.r	2.r	2.r	2.r	2dd\)	2ff\)	2.r	2.r
.	.	.	4b-\	.	.	.	.	.	.	.	.	.	.	.	.	.	.
.	.	.	4b-\	(4dd\	.	.	.	.	.	.	.	.	.	(4b-\	(4dd\	.	.
=96	=96	=96	=96	=96	=96	=96	=96	=96	=96	=96	=96	=96	=96	=96	=96	=96	=96
2.r	2.r	2.r	4b-\	2ff\)	2.r	2.r	2.r	2.r	2.r	2.r	2.r	2.r	2.r	2dd\)	2ff\)	2.r	2.r
.	.	.	4b-\	.	.	.	.	.	.	.	.	.	.	.	.	.	.
.	.	.	4b-\	(4dd\	.	.	.	.	.	.	.	.	.	(4b-\	(4dd\	.	.
=97	=97	=97	=97	=97	=97	=97	=97	=97	=97	=97	=97	=97	=97	=97	=97	=97	=97
2.r	2.r	4b-\	[2.dd\	2ff#\)	2.r	2.r	2.r	2.r	2.r	2.r	2.r	2.r	2.r	4dd\)	(2.ff#\)	2.r	[2.ddd\
.	.	4b-\	.	.	.	.	.	.	.	.	.	.	.	4b-\	.	.	.
.	.	4b-\	.	(4dd\	.	.	.	.	.	.	.	.	.	4b-\	.	.	.
=98	=98	=98	=98	=98	=98	=98	=98	=98	=98	=98	=98	=98	=98	=98	=98	=98	=98
2.r	2.r	4b-\	2.dd_\	2gg\)	2.r	2.r	2.r	2.r	2.r	2.r	2.r	2.r	2.r	4b-\	2.gg\	2.r	2.ddd_\
.	.	4b-\	.	.	.	.	.	.	.	.	.	.	.	4b-\	.	.	.
.	.	4b-\	.	(4dd\	.	.	.	.	.	.	.	.	.	(4b-\	.	.	.
=99	=99	=99	=99	=99	=99	=99	=99	=99	=99	=99	=99	=99	=99	=99	=99	=99	=99
2.r	2.r	4b-\	2.dd\]	2gg#\)	2.r	2.r	2.r	2.r	2.r	4B-\	4B-\	2.r	2.r	2ff\)	2.gg#\	2.r	2.ddd\]
.	.	4b-\	.	.	.	.	.	.	.	4B-\	4B-\	.	.	.	.	.	.
.	.	4b-\	.	(4dd\	.	.	.	.	.	4B-\	4B-\	.	.	(4dd\	.	.	.
=100	=100	=100	=100	=100	=100	=100	=100	=100	=100	=100	=100	=100	=100	=100	=100	=100	=100
2.r	2.r	4a\	2.cc#\	(2.aa\)	2.r	2.r	2.r	2.r	2.r	[2.A\	[2.A\	2.r	2.r	2.ee\	2.aa\	2.r	(4ccc#\
.	.	4a\	.	.	.	.	.	.	.	.	.	.	.	.	.	.	4eee\
.	.	4a\	.	.	.	.	.	.	.	.	.	.	.	.	.	.	4aa\)
=101	=101	=101	=101	=101	=101	=101	=101	=101	=101	=101	=101	=101	=101	=101	=101	=101	=101
2.r	2.r	4a\	(4dd\	2.gg#\	2.r	2.r	2.r	2.r	2.r	2.A_\	2.A_\	2.r	2.r	2ff\	2.gg#\	2.r	2.ddd\
.	.	4a\	4ff\	.	.	.	.	.	.	.	.	.	.	.	.	.	.
.	.	4a\	4dd\)	.	.	.	.	.	.	.	.	.	.	4dd\	.	.	.
=102	=102	=102	=102	=102	=102	=102	=102	=102	=102	=102	=102	=102	=102	=102	=102	=102	=102
2.r	2.r	4a\	2.cc#\	2.aa\	2.r	2.r	2.r	2.r	2.r	2.A_\	2.A_\	2.r	2.r	2.ee\	2.aa\	2.r	(4ccc#\
.	.	4a\	.	.	.	.	.	.	.	.	.	.	.	.	.	.	4eee\
.	.	4a\	.	.	.	.	.	.	.	.	.	.	.	.	.	.	4aa\)
=103	=103	=103	=103	=103	=103	=103	=103	=103	=103	=103	=103	=103	=103	=103	=103	=103	=103
2.r	2.r	4a\	(4dd\	2.gg#\	2.r	2.r	2.r	2.r	2.r	2.A_\	2.A_\	2.r	2.r	2ff\	2.gg#\	2.r	2.ddd\
.	.	4a\	4ff\	.	.	.	.	.	.	.	.	.	.	.	.	.	.
.	.	4a\	4dd\)	.	.	.	.	.	.	.	.	.	.	4dd\	.	.	.
=104	=104	=104	=104	=104	=104	=104	=104	=104	=104	=104	=104	=104	=104	=104	=104	=104	=104
4r	4r	2a;\	2cc#;\	2aa;\)	4r	4r	4r	4r	4r	2A;\]	2A;\]	4r	4r	2ee;\)	2aa;\)	4r	2ccc#;\
4r	4r	.	.	.	4r	4r	4r	4r	4r	.	.	4r	4r	.	.	4r	.
=|!@	=|!@	=|!@	=|!@	=|!@	=|!@	=|!@	=|!@	=|!@	=|!@	=|!@	=|!@	=|!@	=|!@	=|!@	=|!@	=|!@	=|!@
*-	*-	*-	*-	*-	*-	*-	*-	*-	*-	*-	*-	*-	*-	*-	*-	*-	*-
!!!CDT: 1732/3/31/-1809/5/31/
!!!OCO: Johann Peter Salomon
!!!OCY: Oesterreich
!!!ODT: 1795///
!!!MPD: 1795/4/13/
!!!OPC: London
!!!PPR: Ernst Eulenburg, Ltd.
!!!PPP: London
!!!PDT: 1880///
!!!AGN: symphony
!!!AST: classical, orchestral
!!!AMT: simple triple
!!!YOR: Ernst Praetorius, editor
!!!AIN: cbass cello clars cor fagot flt oboe timpa tromp viola violn
!!!EEV: 1.0
!!!RDT: 1995 November 24
!!!YER: 1996 August 10
!!!YEN: United States of America
!!!EFL: 3/4
!!!ENC: Frances Bennion
!!!EED: W.B. Hewlett
!!!VTS: 3967431185
